X: 28226
T: Mrs. Dundas McQueen
R: reel
M: 4/4
K: Gmajor
c|:BGd>B cAeA|BGdB (de/f/) gd|BGdB cAec|1 BG (B/c/d) e2 dg:|2 BG (G/G/G) e2 (d/e/f)||
g>edB cAeA|g/f/e/f/ gd e2 (d/e/f)|gedB cAeA|BG G/G/G e2 (d/e/f)|
gedB cAeA|g/f/e/f/ gd e2 (d/e/f)|g>edB cAeA|(B/c/d) (e/f/g) decd||

